packages/icons/svg/Outline/shield-off.svg

<svg fill="none" height="24" viewBox="0 0 24 24" width="24" xmlns="http://www.w3.org/2000/svg"><path clip-rule="evenodd" d="m12.9795 2.4038 7.001 3.93799c.63.355 1.02 1.023 1.02 1.743v.145c0 2.78701-.775 5.46601-2.162 7.78101l-1.465-1.467c1.045-1.905 1.627-4.069 1.627-6.31401v-.145l-7-3.93799-3.21599 1.809-1.469-1.468 3.70399-2.084c.606-.339 1.357-.34 1.96 0zm-8.27249.88923c-.391-.391-1.023-.391-1.414 0s-.391 1.023 0 1.414l15.99999 15.99997c.195.195.451.293.707.293s.512-.098.707-.293c.391-.391.391-1.023 0-1.414zm7.59479 16.39067-.302.17-.302-.17c-4.13099-2.325-6.69799-6.714-6.69799-11.45398v-.14499l.164-.092-1.432-1.43301c-.451.376-.732.927-.732 1.52501v.14499c0 5.46198 2.957 10.51798 7.71799 13.19598l.303.171c.302.17.64.254.979.254s.678-.085.981-.255l.301-.17c1.123-.631 2.14-1.398 3.047-2.268l-1.414-1.414c-.779.743-1.652 1.399-2.613 1.94z" fill="#6b7280" fill-rule="evenodd"/></svg>

<svg width="24" height="24" viewBox="0 0 24 24" fill="none" xmlns="http://www.w3.org/2000/svg">
<g id="Icon/Outline/shield-off">
<path id="Mask" fill-rule="evenodd" clip-rule="evenodd" d="M12.9795 2.4038L19.9805 6.34179C20.6105 6.69679 21.0005 7.36479 21.0005 8.08479V8.22979C21.0005 11.0168 20.2255 13.6958 18.8385 16.0108L17.3735 14.5438C18.4185 12.6388 19.0005 10.4748 19.0005 8.22979V8.08479L12.0005 4.1468L8.78451 5.9558L7.31551 4.4878L11.0195 2.4038C11.6255 2.0648 12.3765 2.0638 12.9795 2.4038ZM4.70701 3.293C4.31601 2.902 3.68401 2.902 3.29301 3.293C2.90201 3.684 2.90201 4.31599 3.29301 4.707L19.293 20.707C19.488 20.902 19.744 21 20 21C20.256 21 20.512 20.902 20.707 20.707C21.098 20.316 21.098 19.684 20.707 19.293L4.70701 3.293ZM12.3018 19.6836L11.9998 19.8536L11.6978 19.6836C7.56681 17.3586 4.99981 12.9696 4.99981 8.2296V8.0846L5.16381 7.9926L3.73181 6.5596C3.28081 6.9356 2.99981 7.4866 2.99981 8.0846V8.2296C2.99981 13.6916 5.95681 18.7476 10.7178 21.4256L11.0208 21.5966C11.3228 21.7666 11.6608 21.8506 11.9998 21.8506C12.3388 21.8506 12.6778 21.7656 12.9808 21.5956L13.2818 21.4256C14.4048 20.7946 15.4218 20.0276 16.3288 19.1576L14.9148 17.7436C14.1358 18.4866 13.2628 19.1426 12.3018 19.6836Z" fill="#000000"/>
</g>
</svg>
